src/status/24/notification-disabled-20-symbolic.svg

<?xml version="1.0" encoding="UTF-8" standalone="no"?>
<svg
   xmlns:dc="http://purl.org/dc/elements/1.1/"
   xmlns:cc="http://creativecommons.org/ns#"
   xmlns:rdf="http://www.w3.org/1999/02/22-rdf-syntax-ns#"
   xmlns:svg="http://www.w3.org/2000/svg"
   xmlns="http://www.w3.org/2000/svg"
   height="24"
   width="24"
   version="1.1"
   id="svg6">
  <metadata
     id="metadata12">
    <rdf:RDF>
      <cc:Work
         rdf:about="">
        <dc:format>image/svg+xml</dc:format>
        <dc:type
           rdf:resource="http://purl.org/dc/dcmitype/StillImage" />
        <dc:title />
      </cc:Work>
    </rdf:RDF>
  </metadata>
  <defs
     id="defs10" />
  <path
     style="color:#bebebe;overflow:visible;opacity:1;isolation:auto;mix-blend-mode:normal;fill:#ffffff;stroke-width:1;marker:none;font-variant-east_asian:normal;vector-effect:none;fill-opacity:1;stroke-linecap:butt;stroke-linejoin:miter;stroke-miterlimit:4;stroke-dasharray:none;stroke-dashoffset:0;stroke-opacity:1"
     d="M 6.3535156 4.7363281 L 5.4121094 5.6777344 L 8.1210938 8.3867188 L 8.5429688 7.9648438 C 8.2003377 8.5800327 8.0007908 9.2795684 8 10 C 8 10 7.9998438 15.000094 6.3398438 15.621094 C 6.3238437 15.632094 6.3177812 15.652062 6.3007812 15.664062 A 0.726 0.726 0 0 0 6.1386719 15.839844 C 6.1206719 15.866844 6.0999375 15.888016 6.0859375 15.916016 A 0.738 0.738 0 0 0 6 16.25 C 6 16.363636 6.335 17 6.75 17 L 17.25 17 C 17.363636 17 18 16.363636 18 16.25 A 0.738 0.738 0 0 0 17.914062 15.916016 C 17.900062 15.888016 17.878328 15.865844 17.861328 15.839844 A 0.725 0.725 0 0 0 17.699219 15.664062 C 17.683219 15.652062 17.677156 15.632094 17.660156 15.621094 C 16.000156 15.001094 16 10 16 10 C 15.998 8.177 14.765 6.4647656 13 6.0097656 L 13 6 A 1 1 0 0 0 12 5 A 1 1 0 0 0 11 6 L 11 6.0097656 C 10.181052 6.2214665 9.4850817 6.7111595 8.9648438 7.3496094 L 6.3535156 4.7363281 z M 10.066406 18 A 2 2 0 0 0 12 19.5 A 2 2 0 0 0 13.935547 18 L 10.066406 18 z "
     id="path2" />
</svg>

<?xml version="1.0" encoding="UTF-8"?>
<svg id="svg6" width="24" height="24" version="1.1" xmlns="http://www.w3.org/2000/svg" xmlns:cc="http://creativecommons.org/ns#" xmlns:dc="http://purl.org/dc/elements/1.1/" xmlns:rdf="http://www.w3.org/1999/02/22-rdf-syntax-ns#">
 <metadata id="metadata12">
  <rdf:RDF>
   <cc:Work rdf:about="">
    <dc:format>image/svg+xml</dc:format>
    <dc:type rdf:resource="http://purl.org/dc/dcmitype/StillImage"/>
    <dc:title/>
   </cc:Work>
  </rdf:RDF>
 </metadata>
 <path id="path2" d="m6.3535 4.7363-0.94141 0.94141 2.709 2.709 0.42188-0.42188c-0.34263 0.61519-0.54218 1.3147-0.54297 2.0352 0 0-1.562e-4 5.0001-1.6602 5.6211-0.016 0.011-0.022063 0.030968-0.039063 0.042968a0.726 0.726 0 0 0-0.16211 0.17578c-0.018 0.027-0.038734 0.048172-0.052734 0.076172a0.738 0.738 0 0 0-0.085938 0.33398c0 0.11364 0.335 0.75 0.75 0.75h10.5c0.11364 0 0.75-0.63636 0.75-0.75a0.738 0.738 0 0 0-0.085938-0.33398c-0.014-0.028-0.035734-0.050172-0.052734-0.076172a0.725 0.725 0 0 0-0.16211-0.17578c-0.016-0.012-0.022063-0.031968-0.039063-0.042968-1.66-0.62-1.6602-5.6211-1.6602-5.6211-2e-3 -1.823-1.235-3.5352-3-3.9902v-0.0097656a1 1 0 0 0-1-1 1 1 0 0 0-1 1v0.0097656c-0.81895 0.2117-1.5149 0.70139-2.0352 1.3398l-2.6113-2.6133zm3.7129 13.264a2 2 0 0 0 1.9336 1.5 2 2 0 0 0 1.9355-1.5h-3.8691z" color="#bebebe" fill="#fff" style="font-variant-east_asian:normal;isolation:auto;mix-blend-mode:normal"/>
</svg>
